static/fa/svgs/solid/file-zipper.svg

<svg xmlns="http://www.w3.org/2000/svg" viewBox="0 0 384 512"><!--! Font Awesome Free 6.1.1 by @fontawesome - https://fontawesome.com License - https://fontawesome.com/license/free (Icons: CC BY 4.0, Fonts: SIL OFL 1.1, Code: MIT License) Copyright 2022 Fonticons, Inc.--><path d="M256 0v128h128L256 0zm-32 128V0H48C21.49 0 0 21.49 0 48v416c0 26.5 21.49 48 48 48h288c26.51 0 48-21.49 48-48V160H256.9c-18.6 0-32.9-14.3-32.9-32zM96 32h64v32H96V32zm0 64h64v32H96V96zm0 64h64v32H96v-32zm32.3 255.1c-40.56 0-70.76-36.45-62.83-75.45L96 224h64l30.94 116.9c7.76 38.8-22.44 74.2-62.64 74.2zM144 336h-32c-8.8 0-16 7.2-16 16s7.164 16 16 16h32c8.8 0 16-7.2 16-16s-7.2-16-16-16z"/></svg>

<svg xmlns="http://www.w3.org/2000/svg" viewBox="0 0 384 512"><!--! Font Awesome Free 6.1.1 by @fontawesome - https://fontawesome.com License - https://fontawesome.com/license/free (Icons: CC BY 4.0, Fonts: SIL OFL 1.1, Code: MIT License) Copyright 2022 Fonticons, Inc. --><path d="M256 0v128h128L256 0zM224 128L224 0H48C21.49 0 0 21.49 0 48v416C0 490.5 21.49 512 48 512h288c26.51 0 48-21.49 48-48V160h-127.1C238.3 160 224 145.7 224 128zM96 32h64v32H96V32zM96 96h64v32H96V96zM96 160h64v32H96V160zM128.3 415.1c-40.56 0-70.76-36.45-62.83-75.45L96 224h64l30.94 116.9C198.7 379.7 168.5 415.1 128.3 415.1zM144 336h-32C103.2 336 96 343.2 96 352s7.164 16 16 16h32C152.8 368 160 360.8 160 352S152.8 336 144 336z"/></svg>
